icons/svg/shaders/h_golf_rough.svg

<?xml version="1.0" encoding="UTF-8" standalone="no"?>
<svg
   xmlns:dc="http://purl.org/dc/elements/1.1/"
   xmlns:cc="http://creativecommons.org/ns#"
   xmlns:rdf="http://www.w3.org/1999/02/22-rdf-syntax-ns#"
   xmlns:svg="http://www.w3.org/2000/svg"
   xmlns="http://www.w3.org/2000/svg"
   xmlns:sodipodi="http://sodipodi.sourceforge.net/DTD/sodipodi-0.dtd"
   xmlns:inkscape="http://www.inkscape.org/namespaces/inkscape"
   width="24"
   height="24"
   viewBox="0 0 24 24"
   fill="none"
   version="1.1"
   id="svg67"
   sodipodi:docname="h_golf_rough.svg"
   inkscape:version="0.92.5 (2060ec1f9f, 2020-04-08)">
  <metadata
     id="metadata71">
    <rdf:RDF>
      <cc:Work
         rdf:about="">
        <dc:format>image/svg+xml</dc:format>
        <dc:type
           rdf:resource="http://purl.org/dc/dcmitype/StillImage" />
      </cc:Work>
    </rdf:RDF>
  </metadata>
  <sodipodi:namedview
     pagecolor="#ffffff"
     bordercolor="#666666"
     borderopacity="1"
     objecttolerance="10"
     gridtolerance="10"
     guidetolerance="10"
     inkscape:pageopacity="0"
     inkscape:pageshadow="2"
     inkscape:window-width="1920"
     inkscape:window-height="1014"
     id="namedview69"
     showgrid="false"
     inkscape:zoom="9.8333333"
     inkscape:cx="0.50847458"
     inkscape:cy="12"
     inkscape:window-x="1920"
     inkscape:window-y="0"
     inkscape:window-maximized="1"
     inkscape:current-layer="svg67" />
  <path
     style="fill:#969696;fill-opacity:1"
     inkscape:connector-curvature="0"
     id="path4"
     d="m 21.1351,16.5854 h -1.012 v 1.011 h 1.012 z" />
  <path
     style="fill:#969696;fill-opacity:1"
     inkscape:connector-curvature="0"
     id="path6"
     d="M 11.014,2 H 10 v 1.01099 h 1.014 z" />
  <path
     style="fill:#969696;fill-opacity:1"
     inkscape:connector-curvature="0"
     id="path8"
     d="m 20,13 h -1.014 v 1.011 H 20 Z" />
  <path
     style="fill:#969696;fill-opacity:1"
     inkscape:connector-curvature="0"
     id="path10"
     d="m 5.00002,14 h -1.012 v 1.011 h 1.012 z" />
  <path
     style="fill:#969696;fill-opacity:1"
     inkscape:connector-curvature="0"
     id="path12"
     d="M 12,22.989 H 10.986 V 24 H 12 Z" />
  <path
     style="fill:#969696;fill-opacity:1"
     inkscape:connector-curvature="0"
     id="path14"
     d="M 7.00002,11 H 5.98601 v 1.011 h 1.01401 z" />
  <path
     style="fill:#969696;fill-opacity:1"
     inkscape:connector-curvature="0"
     id="path16"
     d="M 23.014,21.989 H 22 V 23 h 1.014 z" />
  <path
     style="fill:#969696;fill-opacity:1"
     inkscape:connector-curvature="0"
     id="path18"
     d="M 2.01201,21 H 1.00002 v 1.011 h 1.01199 z" />
  <path
     style="fill:#969696;fill-opacity:1"
     inkscape:connector-curvature="0"
     id="path20"
     d="M 23,3 H 21.986 V 4.01099 H 23 Z" />
  <path
     style="fill:#969696;fill-opacity:1"
     inkscape:connector-curvature="0"
     id="path22"
     d="M 16,11.989 H 14.986 V 13 H 16 Z" />
  <path
     style="fill:#969696;fill-opacity:1"
     inkscape:connector-curvature="0"
     id="path24"
     d="M 3.01201,18 H 2.00002 v 1.011 h 1.01199 z" />
  <path
     style="fill:#969696;fill-opacity:1"
     inkscape:connector-curvature="0"
     id="path26"
     d="M 7.00002,17 H 5.98601 v 1.011 h 1.01401 z" />
  <path
     style="fill:#969696;fill-opacity:1"
     inkscape:connector-curvature="0"
     id="path28"
     d="M 4.00002,1 H 2.98601 v 1.01099 h 1.01401 z" />
  <path
     style="fill:#969696;fill-opacity:1"
     inkscape:connector-curvature="0"
     id="path30"
     d="M 16.014,22 H 15 v 1.011 h 1.014 z" />
  <path
     style="fill:#969696;fill-opacity:1"
     inkscape:connector-curvature="0"
     id="path32"
     d="M 12,7 H 10.988 V 8.01099 H 12 Z" />
  <path
     style="fill:#969696;fill-opacity:1"
     inkscape:connector-curvature="0"
     id="path34"
     d="M 23.014,9 H 22 v 1.011 h 1.014 z" />
  <path
     style="fill:#969696;fill-opacity:1"
     inkscape:connector-curvature="0"
     id="path36"
     d="M 8.00002,8 H 6.98601 v 1.01099 h 1.01401 z" />
  <path
     style="fill:#969696;fill-opacity:1"
     inkscape:connector-curvature="0"
     id="path38"
     d="M 20,7 H 18.988 V 8.01099 H 20 Z" />
  <path
     style="fill:#969696;fill-opacity:1"
     inkscape:connector-curvature="0"
     id="path40"
     d="M 11.014,18 H 10 v 1.011 h 1.014 z" />
  <path
     style="fill:#969696;fill-opacity:1"
     inkscape:connector-curvature="0"
     id="path42"
     d="M 9.00002,15 H 7.98601 v 1.011 h 1.01401 z" />
  <path
     style="fill:#969696;fill-opacity:1"
     inkscape:connector-curvature="0"
     id="path44"
     d="M 3.00002,3.98901 H 1.98601 V 5 h 1.01401 z" />
  <path
     style="fill:#969696;fill-opacity:1"
     inkscape:connector-curvature="0"
     id="path46"
     d="M 15,7.98898 H 13.988 V 9 H 15 Z" />
  <path
     style="fill:#969696;fill-opacity:1"
     inkscape:connector-curvature="0"
     id="path48"
     d="M 18.014,20 H 17 v 1.011 h 1.014 z" />
  <path
     style="fill:#969696;fill-opacity:1"
     inkscape:connector-curvature="0"
     id="path50"
     d="m 12,13 h -1.014 v 1.011 H 12 Z" />
  <path
     style="fill:#969696;fill-opacity:1"
     inkscape:connector-curvature="0"
     id="path52"
     d="M 2.00002,12 H 0.988022 v 1.011 H 2.00002 Z" />
  <path
     style="fill:#969696;fill-opacity:1"
     inkscape:connector-curvature="0"
     id="path54"
     d="M 5.00002,7 H 3.98601 v 1.01099 h 1.01401 z" />
  <path
     style="fill:#969696;fill-opacity:1"
     inkscape:connector-curvature="0"
     id="path56"
     d="M 7.00002,22 H 5.98601 v 1.011 h 1.01401 z" />
  <path
     style="fill:#969696;fill-opacity:1"
     inkscape:connector-curvature="0"
     id="path58"
     d="M 17.014,5 H 16 v 1.01099 h 1.014 z" />
  <defs
     id="defs65">
    <clipPath
       id="clip0">
      <path
         d="M0 0H24V24H0V0Z"
         fill="white"
         id="path62" />
    </clipPath>
  </defs>
</svg>

<svg width="24" height="24" fill="none" version="1.1" viewBox="0 0 24 24" xmlns="http://www.w3.org/2000/svg">
 <g fill="#969696">
  <path d="m21.135 16.585h-1.012v1.011h1.012z"/>
  <path d="m11.014 2h-1.014v1.011h1.014z"/>
  <path d="m20 13h-1.014v1.011h1.014z"/>
  <path d="m5 14h-1.012v1.011h1.012z"/>
  <path d="m12 22.989h-1.014v1.011h1.014z"/>
  <path d="m7 11h-1.014v1.011h1.014z"/>
  <path d="m23.014 21.989h-1.014v1.011h1.014z"/>
  <path d="m2.012 21h-1.012v1.011h1.012z"/>
  <path d="m23 3h-1.014v1.011h1.014z"/>
  <path d="m16 11.989h-1.014v1.011h1.014z"/>
  <path d="m3.012 18h-1.012v1.011h1.012z"/>
  <path d="m7 17h-1.014v1.011h1.014z"/>
  <path d="m4 1h-1.014v1.011h1.014z"/>
  <path d="m16.014 22h-1.014v1.011h1.014z"/>
  <path d="m12 7h-1.012v1.011h1.012z"/>
  <path d="m23.014 9h-1.014v1.011h1.014z"/>
  <path d="m8 8h-1.014v1.011h1.014z"/>
  <path d="m20 7h-1.012v1.011h1.012z"/>
  <path d="m11.014 18h-1.014v1.011h1.014z"/>
  <path d="m9 15h-1.014v1.011h1.014z"/>
  <path d="m3 3.989h-1.014v1.011h1.014z"/>
  <path d="m15 7.989h-1.012v1.011h1.012z"/>
  <path d="m18.014 20h-1.014v1.011h1.014z"/>
  <path d="m12 13h-1.014v1.011h1.014z"/>
  <path d="m2 12h-1.012v1.011h1.012z"/>
  <path d="m5 7h-1.014v1.011h1.014z"/>
  <path d="m7 22h-1.014v1.011h1.014z"/>
  <path d="m17.014 5h-1.014v1.011h1.014z"/>
 </g>
</svg>
